Obsidian-SemiLight/actions/22s/zone-out.svg

<svg viewBox="0 0 22 22" xmlns="http://www.w3.org/2000/svg"><path d="m15 3v11.050781a2.5 2.5 0 0 1 2 2.449219 2.5 2.5 0 0 1 -2.5 2.5 2.5 2.5 0 0 1 -2.5-2.5 2.5 2.5 0 0 1 2-2.445312v-11.054688zm-7.292969 3 2.792969 2.7929688.707031.7070312-.707031.707031-2.792969 2.792969-.707031-.707031 2.292969-2.292969h-6.292969v-1h2 4.292969l-2.292969-2.2929688zm6.792969 9a1.5 1.5 0 0 0 -1.5 1.5 1.5 1.5 0 0 0 1.5 1.5 1.5 1.5 0 0 0 1.5-1.5 1.5 1.5 0 0 0 -1.5-1.5z" fill="#4d4d4d"/></svg>

<svg xmlns="http://www.w3.org/2000/svg" viewBox="0 0 22 22">
  <defs id="defs3051">
    <style type="text/css" id="current-color-scheme">
      .ColorScheme-Text {
        color:#4d4d4d;
      }
      </style>
  </defs>
 <path 
    style="fill:currentColor;fill-opacity:1;stroke:none" 
    d="m 15,3 0,11.050781 A 2.5,2.5 0 0 1 17,16.5 2.5,2.5 0 0 1 14.5,19 2.5,2.5 0 0 1 12,16.5 2.5,2.5 0 0 1 14,14.054688 L 14,3 15,3 Z M 7.707031,6 10.5,8.7929688 11.207031,9.5 10.5,10.207031 7.707031,13 7,12.292969 9.292969,10 3,10 3,9 5,9 9.292969,9 7,6.7070312 7.707031,6 Z M 14.5,15 A 1.5,1.5 0 0 0 13,16.5 1.5,1.5 0 0 0 14.5,18 1.5,1.5 0 0 0 16,16.5 1.5,1.5 0 0 0 14.5,15 Z"
    class="ColorScheme-Text"
    />  
</svg>
